X:1
P: Donald Blue
C: Shetland, from Silver Bow (Tom Anderson et al)
C: Arr. T. Traub 8-22-2004
R: reel
M: 4/4
K: D
L: 1/8
A|"D"dBAF AFAB|dBAF E2 D2|"D"dBAF AFAd|"G"B B2 A "A"B2 e2|"D"dBAF AFAB|
dBAF E2 D2|"D"dBAF AFAd|"Bm"B B2 A "G"B2 d2||"D"ABde fafd|"D"fafd "G"ed B2|"D"ABde fafd|
"Bm"B B2 A "G"B2 d2|"D"ABde fafd|"D"fafd "G"ed B2|"D"ABde fafd|"Bm"B B2 A "G"B2 d2 |]
